svgs/duotone/suitcase-medical.svg

<svg xmlns="http://www.w3.org/2000/svg" viewBox="0 0 512 512"><!--! Font Awesome Pro 6.6.0 by @fontawesome - https://fontawesome.com License - https://fontawesome.com/license (Commercial License) Copyright 2024 Fonticons, Inc. --><defs><style>.fa-secondary{opacity:.4}</style></defs><path class="fa-secondary" d="M96 96l0 384 32 0 0-352 0-32L96 96zm288 0l0 32 0 352 32 0 0-384-32 0z"/><path class="fa-primary" d="M184 48l144 0c4.4 0 8 3.6 8 8l0 40L176 96l0-40c0-4.4 3.6-8 8-8zm-56 8l0 40 0 32 0 352 256 0 0-352 0-32 0-40c0-30.9-25.1-56-56-56L184 0c-30.9 0-56 25.1-56 56zM96 96L64 96C28.7 96 0 124.7 0 160L0 416c0 35.3 28.7 64 64 64l32 0L96 96zM416 480l32 0c35.3 0 64-28.7 64-64l0-256c0-35.3-28.7-64-64-64l-32 0 0 384zM224 208c0-8.8 7.2-16 16-16l32 0c8.8 0 16 7.2 16 16l0 48 48 0c8.8 0 16 7.2 16 16l0 32c0 8.8-7.2 16-16 16l-48 0 0 48c0 8.8-7.2 16-16 16l-32 0c-8.8 0-16-7.2-16-16l0-48-48 0c-8.8 0-16-7.2-16-16l0-32c0-8.8 7.2-16 16-16l48 0 0-48z"/></svg>

<svg xmlns="http://www.w3.org/2000/svg" viewBox="0 0 512 512"><!--! Font Awesome Pro 6.4.0 by @fontawesome - https://fontawesome.com License - https://fontawesome.com/license (Commercial License) Copyright 2023 Fonticons, Inc. --><defs><style>.fa-secondary{opacity:.4}</style></defs><path class="fa-primary" d="M184 48H328c4.4 0 8 3.6 8 8V96H176V56c0-4.4 3.6-8 8-8zm-56 8V96v32V480H384V128 96 56c0-30.9-25.1-56-56-56H184c-30.9 0-56 25.1-56 56zM96 96H64C28.7 96 0 124.7 0 160V416c0 35.3 28.7 64 64 64H96V96zM416 480h32c35.3 0 64-28.7 64-64V160c0-35.3-28.7-64-64-64H416V480zM224 208c0-8.8 7.2-16 16-16h32c8.8 0 16 7.2 16 16v48h48c8.8 0 16 7.2 16 16v32c0 8.8-7.2 16-16 16H288v48c0 8.8-7.2 16-16 16H240c-8.8 0-16-7.2-16-16V320H176c-8.8 0-16-7.2-16-16V272c0-8.8 7.2-16 16-16h48V208z"/><path class="fa-secondary" d="M96 480h32V96H96V480zM384 96V480h32V96H384z"/></svg>
